X: 35543
T: Rushing, The
R: reel
M: 4/4
K: Gmajor
|:~B3 B BAGB|AE~E2 DB,A,B,|G,A,B,D E2 DE|GBBA GABc|
B3 B BAGB|AE~E2 DB,A,B,|G,A,B,D E2 DE|GBBA GABc:|
|:B3 B BAGF|Ec ~c2 ecAc|~B3 B BAGB|AE~E2 DB,A,C|
B,DGD ~E3 G|DEGB ADGA|B3 B BAGE|DB,A,B, G,4:|

